X:1
T:Petronella
C:Traditional
N: abc version by Robert Bley-Vroman, Contradancers of Hawaii, July 1996
Z: mailto:vroman@hawaii.edu
M:2/2
L:1/8
K:D
  dA |: F2 AF E2 AF | D2 D2 D2 FA| d2 cd e2 d2 | cd Bc A2 dA 
     |  F2 AF E2 AF | D2 D2 D2 FA| d2 cd e2 c2 |  d4 d4 :|   
     |: F2  fd A2 af | g2 gf edcB | A2 ec A2 ge | f2 fd AdAF  
     |  D2  fd A2 af | g2 gf edcB | A2 ec  Aage | d4 d4 :|
